symbols/web/snowmobile/materialsymbolsrounded/snowmobile_wght500gradN25fill1_24px.svg

<svg xmlns="http://www.w3.org/2000/svg" height="24" width="24"><path d="M23.775 18.325q-.325.8-1.087 1.275-.763.475-1.663.475h-5q-.425 0-.75-.313-.325-.312-.325-.762t.325-.762q.325-.313.75-.313H17.8l-1.85-1.85H12.1q-.05 1.675-1.237 2.838-1.188 1.162-2.838 1.162h-6q-.975 0-1.525-.65-.55-.65-.55-1.425 0-.525.263-1.012.262-.488.837-.813l3.325-1.8-2.8-.85q-.65-.175-.962-.65Q.3 12.4.3 11.725q0-.825.6-1.413.6-.587 1.5-.487l8.425.875L14.5 8.05l-1.2-1.075h-1.325q-.425 0-.725-.3t-.3-.725q0-.425.3-.725t.725-.3H13.7q.2 0 .375.063.175.062.325.212l6.925 6.425q.375.35.575.75.2.4.2.8 0 1.025-.95 1.837-.95.813-2.3.963h-.1l2.025 1.95h.175q.2 0 .388-.088.187-.087.287-.212.325-.275.588-.487.262-.213.562-.213.575 0 .9.438.325.437.1.962Zm-21.2-.4h5.45q.775 0 1.325-.55.55-.55.575-1.325l-2.65-.8L2.55 17.8q-.025 0-.037.012-.013.013-.013.038t.025.05q.025.025.05.025Z"/></svg>

<svg xmlns="http://www.w3.org/2000/svg" height="24" width="24"><path d="M23.775 18.325Q23.45 19.125 22.688 19.6Q21.925 20.075 21.025 20.075H16.025Q15.6 20.075 15.275 19.762Q14.95 19.45 14.95 19Q14.95 18.55 15.275 18.238Q15.6 17.925 16.025 17.925H17.8L15.95 16.075H12.1Q12.05 17.75 10.863 18.913Q9.675 20.075 8.025 20.075H2.025Q1.05 20.075 0.5 19.425Q-0.05 18.775 -0.05 18Q-0.05 17.475 0.213 16.988Q0.475 16.5 1.05 16.175L4.375 14.375L1.575 13.525Q0.925 13.35 0.613 12.875Q0.3 12.4 0.3 11.725Q0.3 10.9 0.9 10.312Q1.5 9.725 2.4 9.825L10.825 10.7L14.5 8.05L13.3 6.975H11.975Q11.55 6.975 11.25 6.675Q10.95 6.375 10.95 5.95Q10.95 5.525 11.25 5.225Q11.55 4.925 11.975 4.925H13.7Q13.9 4.925 14.075 4.988Q14.25 5.05 14.4 5.2L21.325 11.625Q21.7 11.975 21.9 12.375Q22.1 12.775 22.1 13.175Q22.1 14.2 21.15 15.012Q20.2 15.825 18.85 15.975H18.75L20.775 17.925H20.95Q21.15 17.925 21.338 17.837Q21.525 17.75 21.625 17.625Q21.95 17.35 22.213 17.138Q22.475 16.925 22.775 16.925Q23.35 16.925 23.675 17.363Q24 17.8 23.775 18.325ZM2.575 17.925H8.025Q8.8 17.925 9.35 17.375Q9.9 16.825 9.925 16.05L7.275 15.25L2.55 17.8Q2.525 17.8 2.513 17.812Q2.5 17.825 2.5 17.85Q2.5 17.875 2.525 17.9Q2.55 17.925 2.575 17.925Z"/></svg>
